src/assets/filled/WalletSearch.svg

<svg width="24" height="24" viewBox="0 0 24 24"  xmlns="http://www.w3.org/2000/svg">
<path d="M1.22986 21.6817L1.98986 20.9217C1.58986 20.3217 1.35986 19.6017 1.35986 18.8317C1.35986 16.7217 3.06986 15.0117 5.17986 15.0117C7.28986 15.0117 8.99986 16.7117 8.99986 18.8217C8.99986 20.9317 7.28986 22.6417 5.17986 22.6417C4.40986 22.6417 3.68986 22.4117 3.08986 22.0117L2.32986 22.7717C2.16986 22.9217 1.96986 23.0017 1.76986 23.0017C1.56986 23.0017 1.36986 22.9217 1.21986 22.7717C0.919859 22.4717 0.919859 21.9817 1.22986 21.6817Z" />
<path d="M21.5 12.5H19C17.9 12.5 17 13.4 17 14.5C17 15.6 17.9 16.5 19 16.5H21.5C21.78 16.5 22 16.28 22 16V13C22 12.72 21.78 12.5 21.5 12.5Z" />
<path d="M16.53 5.39997C16.83 5.68997 16.58 6.13997 16.16 6.13997L7.87996 6.12997C7.39996 6.12997 7.15996 5.54997 7.49996 5.20997L9.24996 3.44997C10.73 1.97997 13.12 1.97997 14.6 3.44997L16.49 5.35997C16.5 5.36997 16.52 5.38997 16.53 5.39997Z" />
<path d="M21.8701 18.66C21.2601 20.72 19.5001 22 17.1001 22H10.6001C10.2101 22 9.96011 21.57 10.1201 21.21C10.4201 20.51 10.6101 19.72 10.6101 19C10.6101 15.97 8.14011 13.5 5.11011 13.5C4.35011 13.5 3.61011 13.66 2.93011 13.96C2.56011 14.12 2.11011 13.87 2.11011 13.47V12C2.11011 9.28 3.75011 7.38 6.30011 7.06C6.55011 7.02 6.82011 7 7.10011 7H17.1001C17.3601 7 17.6101 7.01 17.8501 7.05C19.8701 7.28 21.3301 8.51 21.8701 10.34C21.9701 10.67 21.7301 11 21.3901 11H19.1001C16.9301 11 15.2101 12.98 15.6801 15.23C16.0101 16.87 17.5301 18 19.2001 18H21.3901C21.7401 18 21.9701 18.34 21.8701 18.66Z" />
</svg>

<?xml version="1.0" encoding="UTF-8"?>
<svg width="24" height="24" viewBox="0 0 24 24" xmlns="http://www.w3.org/2000/svg">
 <path d="m1.2299 21.682 0.76-0.76c-0.4-0.6-0.63-1.32-0.63-2.09 0-2.11 1.71-3.82 3.82-3.82s3.82 1.7 3.82 3.81-1.71 3.82-3.82 3.82c-0.77 0-1.49-0.23-2.09-0.63l-0.76 0.76c-0.16 0.15-0.36 0.23-0.56 0.23s-0.4-0.08-0.55-0.23c-0.3-0.3-0.3-0.79 0.01-1.09z"/>
 <path d="m21.5 12.5h-2.5c-1.1 0-2 0.9-2 2s0.9 2 2 2h2.5c0.28 0 0.5-0.22 0.5-0.5v-3c0-0.28-0.22-0.5-0.5-0.5z"/>
 <path d="m16.53 5.4c0.3 0.29 0.05 0.74-0.37 0.74l-8.28-0.01c-0.48 0-0.72-0.58-0.38-0.92l1.75-1.76c1.48-1.47 3.87-1.47 5.35 0l1.89 1.91 0.04 0.04z"/>
 <path d="m21.87 18.66c-0.61 2.06-2.37 3.34-4.77 3.34h-6.5c-0.39 0-0.63999-0.43-0.48-0.79 0.3-0.7 0.49-1.49 0.49-2.21 0-3.03-2.47-5.5-5.5-5.5-0.76 0-1.5 0.16-2.18 0.46-0.37 0.16-0.82-0.09-0.82-0.49v-1.47c0-2.72 1.64-4.62 4.19-4.94 0.25-0.04 0.52-0.06 0.8-0.06h10c0.26 0 0.51 0.01 0.75 0.05 2.02 0.23 3.48 1.46 4.02 3.29 0.1 0.33-0.14 0.66-0.48 0.66h-2.29c-2.17 0-3.89 1.98-3.42 4.23 0.33 1.64 1.85 2.77 3.52 2.77h2.19c0.35 0 0.58 0.34 0.48 0.66z"/>
</svg>
